X:1
T:Title
%%score { 1 | 2 }
L:1/8
Q:1/4=84
M:2/4
K:Bb
V:1 treble nm="Grand Piano"
V:2 bass 
V:1
 [DF]>[DF] [EG][DF] | [B,D][DF] [DB]2 | c>c cc | Bc d2 | [DF]>[DF] [EG][DF] | [B,D][DF] [DB]2 | %6
w: Asa~Hull * * *||||||
 c>c dc |[M:5/8] B[CA] [DB]3 |[M:2/4] A>A AB |[M:5/8] cd [Ge]3 |[M:2/4] d>d dc | B2 [Ec]2 | %12
w: ||||||
 [DB]4 |] %13
w: |
V:2
 [B,,B,]>[B,,B,] [B,,B,][B,,B,] | [B,,F,][B,,B,] [B,,B,]2 | [F,A,F]>[F,A,F] [F,A,F][F,A,F] | %3
 [G,B,D][F,A,F] [B,F]2 | [B,,B,]>[B,,B,] [B,,B,][B,,B,] | [B,,F,][B,,B,] [B,,B,]2 | %6
 [F,A,F]>[F,A,F] [B,F][K:bass][E,G,E] |[M:5/8] [F,D][F,,F,] [B,,F,]3 | %8
[M:2/4] [F,F]>[K:treble][F,CF] [F,CF][F,B,F] |[M:5/8] [F,A,F][B,_A] [E,B,]3 | %10
[M:2/4] [B,F]>[B,F] [B,F][K:bass][E,G,E] | [F,D]2 [F,,F,]2 | [B,,F,]4 |] %13

